X:1
T:The Lewiston Factory Girl
M:3/4
L:1/4
K:C
 A,| D2 D| E E E| D2 D| G,2 A,| D D D| E2 E| D3| G,2 B,| D D D| E2 E|\
 D2 D| G, G, A,| B, B, B,| D- C A,| G,3| A,3| B,2 B,| D C A,| G,2 G,|\
 G,3|
